!!!COM: Mozart, Wolfgang Amadeus
!!!OPR: Quartet in E-flat Major
!!!OTL:
!!!OMV: 2
!!!SCT: K 428
!!!SCA: Chronologisch-thematisches Verzeichnis sämtlicher Tonwerke Wolfgang Amade Mozarts (L. von Köchel; 1862, 2/1905, 3/1937, 1947)
!!!YOR: Breitkopf & Härtel Edition
!!!EED: Frances Bennion
!!!ENC: Frances Bennion
!!!CDT: 1756/1/27/-1791/12/5/
!!!OCY: Österreich
!!!YEC: Copyright (c) 1994, 2000 Center for Computer Assisted Research in the Humanities
!!!YEM: Rights to all derivative editions reserved.
!!!YEM: Refer to licensing agreement for further details.
!!!YEN: United States of America
**kern	**kern	**kern	**kern
*k[b-e-a-d-]	*k[b-e-a-d-]	*k[b-e-a-d-]	*k[b-e-a-d-]
*A-:	*A-:	*A-:	*A-:
*clefG	*clefG	*clefF	*clefC
*M6/8	*M6/8	*M6/8	*M6/8
*tb48	*tb48	*tb48	*tb48
=1	=1	=1	=1
[4.e-	4.c	4.A-	8AA-
.	.	.	8C
.	.	.	8E-
4.e-]	4.d-	4.B-	8GG
.	.	.	8BB-
.	.	.	8E-
=2	=2	=2	=2
8e-	8c	4A-	8AA-
4.a-	8e-	.	8C
.	4f	8c	8F
.	.	4.B-	8D-
[4g	[4e-	.	8E-
.	.	.	8BB-
=3	=3	=3	=3
8g]	8e-]	4.A-	8BB
4.f	4.d-	.	8C
.	.	.	8D-
.	.	4.G	8BB-
[4e-	[4c	.	8C
.	.	.	8GG
=4	=4	=4	=4
8e-]	8c]	4.F	8AA-
4.d-	4.B-	.	8AA
.	.	.	8BB-
.	.	8F-	8GG
4c	[4A-	4E-	8AA-
.	.	.	8GG-
=5	=5	=5	=5
8d-	8A-]	8F	8FF
8e-	8B-	8G	8EE-
8f	8c-	8A-	8DD
4e-	8c	8A-	8EE-
.	8B-	8G	8E-
16.d-	8r	8r	8r
32B-	.	.	.
=6	=6	=6	=6
4A-	4.r	4.a-	8A-
.	.	.	8c
2r	.	.	8e-
.	4.ee-	[4.ee-	8G
.	.	.	8B-
.	.	.	8e-
=7	=7	=7	=7
4.aa-	2aa-	8ee-]	8F
.	.	4dd-	8A-
.	.	.	8d-
[4.eee-	.	8cc	8E-
.	4gg	4b-	8B-
.	.	.	8e-
=8	=8	=8	=8
8eee-]	8cc	8a	8f
4.ddd-	8dd-	8b-	8B-
.	8cc-	8a-	8d-
.	8b-	8g	8e-
[4ccc-	8cc-	8a-	8A-
.	8b-	8g-	8c-
=9	=9	=9	=9
8ccc-]	8a-	4.f	4.D
8bb-	8b-	.	.
8aa-	8cc-	.	.
4gg	16.b-	16.g	8E-
.	32cc	32a-	.
.	8dd-	8b-	8E
8aa-	8cc	8a-	8F
=10	=10	=10	=10
8ee-	4b-	8r	4G
8dd-	.	8e-	.
8cc	8a-	8e-	8A-
8cc	8a-	4e-	4E-
8b-	8g	.	.
8gg	8r	8r	8r
=11	=11	=11	=11
[2b-	8r	8r	8r
.	8e-	8B-	8G
.	8g	8e-	8E-
.	8g	8e	4B-
8b-]	8a-	8f	.
8aa-	8r	8r	8r
=12	=12	=12	=12
[2b-	8r	8r	8r
.	8B-	8F	8D
.	8f	8d	8BB-
.	8f#	8d	4E-
8b-]	8g	8e-	.
8bb-	8r	8r	8r
=13	=13	=13	=13
2dd-	8r	8r	8r
.	8a-	8f	8F
.	4b-	8e-	8G
.	.	4e-	4A-
8cc	8a-	.	.
8b-	8e	8c	8G
=14	=14	=14	=14
8a-	8f	4.c	8F
16bb-	8cc	.	8FF
16aa-	.	.	.
16gg	16b-	.	8AA-
16ff	16a-	.	.
8ee-	8g	4B-	4BB-
8dd	8f	.	.
8r	8r	8b-	8r
=15	=15	=15	=15
4r	8r	[2cc-	8r
.	8d	.	8F
8gg	8e-	.	8E-
[4.aa-	8e	.	4.D
.	8f	8cc-]	.
.	8r	8b-	.
=16	=16	=16	=16
4aa-]	8r	[2cc-	8r
.	8d	.	8F
8gg	8e-	.	8E-
[4.aa-	8e	.	4.D
.	8f	8cc-]	.
.	8r	8b-	.
=17	=17	=17	=17
4aa-]	8r	4.cc-	8r
.	8d	.	8F
8aa	8e-	.	8E-
8bb-	8e	4.b-	4D
8aa-	8f	.	.
8gg	8g	.	8E-
=18	=18	=18	=18
16gg	8cc	8a-	8A-
16ff	.	.	.
8ee-	8b-	8g	8B-
8dd	8a-	8f	8BB-
4ee-	4g	4e-	8E-
.	.	.	8EE-
8cc	8r	8r	8r
=19	=19	=19	=19
[2dd-	8r	8r	4r
.	8g	8B-	.
.	8a-	8A-	8F-
.	8a	4.G	[4.E-
8dd-]	8b-	.	.
8cc	8r	.	.
=20	=20	=20	=20
[2dd-	8r	8r	4E-]
.	8g	8B-	.
.	8a-	8A-	8F-
.	8a	4.G	[4.E-
8dd-]	8b-	.	.
8cc	8r	.	.
=21	=21	=21	=21
[2dd-	8r	[2.e-	4E-]
.	8g	.	.
.	8a-	.	8F
.	8a	.	8F#
8dd-]	8b-	.	8G
8cc	8a-	.	8A-
=22	=22	=22	=22
8a	8f#	8e-]	8B-
8b-	8g	4r	4r
8g	8e-	.	.
8b-	8g	8B-	8BB-
16.a-	16.f	4r	4r
32g	32e-	.	.
8f	8d	.	.
=23	=23	=23	=23
2.f	4.e-	4.c	8AA
.	.	.	8C
.	.	.	8F
.	4.d	[4.B-	8AA-
.	.	.	8D
.	.	.	8F
=24	=24	=24	=24
8b-	8e-	8B-]	8GG
8a-	8f	8d	8BB
8g	8e-	8..e-	8C
16.cc	16.a-	.	8AA-
32a-	32f	32c	.
8g	8e-	4B-	8BB-
8f	8d	.	8B-
=25	=25	=25	=25
8ff	[4.ee- 4.f	4.cc	4.A
8aa	.	.	.
8ccc	.	.	.
8ff	4.dd 4.f]	4.b-	4.A-
8bb-	.	.	.
8ddd	.	.	.
=26	=26	=26	=26
8eee-	8ee- 8e-	8b-	8G
8gg	8g	2r	2r
8aa-	8a-	.	.
8aa	8a	.	.
8bb-	8b-	.	.
8bb	8b	8r	8r
=27	=27	=27	=27
8ccc	8cc	4c	4A-
8ee	8e	.	.
8ff	8f	2r	2r
8..aa-	8..a-	.	.
32ff	32f	.	.
16.aa-	16.a-	.	.
32ff	32f	.	.
=28	=28	=28	=28
16.ee-	8e-	4r	4r
32gg	.	.	.
8.bb-	8r	.	.
.	8g	8e-	8B-
16gg	.	.	.
8.eee-	8r	8r	8r
.	8g	8e-	8B-
16bb-	.	.	.
8ggg	8r	8r	8r
=29	=29	=29	=29
16r	8g	8e-	8B-
16g	.	.	.
16a-	2r	2r	2r
16a	.	.	.
16b-	.	.	.
16b	.	.	.
16.cc	.	.	.
32dd	.	.	.
16ee-	.	.	.
16ee-	.	.	.
16ee-	8r	8r	8r
16ee-	.	.	.
=30	=30	=30	=30
4ee-	4.B-	4.G	8BB-
.	.	.	8BB-
16.e-	.	.	8BB-
32f	.	.	.
4.f	4.d 4.A-	4.B-	8BB-
.	.	.	8BB-
.	.	.	8BB-
=31	=31	=31	=31
4e-	4.ee-	2.g 2.B-	8E-
.	.	.	8G
2r	.	.	8B-
.	4.dd-	.	8E-
.	.	.	8G
.	.	.	8B-
=32	=32	=32	=32
16cc	4.cc	4.a- 4.c	8E-
16ccc	.	.	.
16bb-	.	.	8A-
16aa-	.	.	.
16gg	.	.	8c
16ff	.	.	.
16b-	4.dd	4.f 4.B-	8E-
16aa-	.	.	.
16gg	.	.	8F
16ff	.	.	.
16ee-	.	.	8A-
16dd	.	.	.
=33	=33	=33	=33
16.bb-	4.ee-	2.g 2.B-	8E-
32gg	.	.	.
8ee-	.	.	8G
2r	.	.	8B-
.	4.dd-	.	8E-
.	.	.	8G
.	.	.	8B-
=34	=34	=34	=34
16cc	4.cc	4.a- 4.c	8E-
16ccc	.	.	.
16bb-	.	.	8A-
16aa-	.	.	.
16gg	.	.	8c
16ff	.	.	.
16b-	4.dd	4.f 4.B-	8E-
16aa-	.	.	.
16gg	.	.	8F
16ff	.	.	.
16ee-	.	.	8A-
16dd	.	.	.
=35	=35	=35	=35
8ee-	8ee-	8g 8B-	8E-
8e- 8G	8e- 8G	8B- 8E-	8EE-
8e- 8G	8e- 8G	8B- 8E-	8EE-
8e- 8G	8e- 8G	8B- 8E-	8EE-
4r	4r	4r	4r
=36	=36	=36	=36
2.r	4.r	8e-	4.E-
.	.	8g	.
.	.	8b-	.
.	4.b-	8d	[4.B-
.	.	8f	.
.	.	8b-	.
=37	=37	=37	=37
4.ee-	2ee-	8c	8B-]
.	.	8e-	4A-
.	.	8a-	.
[4.bb-	.	8B-	8G
.	4dd-	8d-	4F
.	.	8f	.
=38	=38	=38	=38
8bb-]	8cc	8c	8E
4.aa-	4.ff	8f	8F
.	.	8a-	8BB
.	.	8c	4C
4gg	4ee	8e	.
.	.	8g	8r
=39	=39	=39	=39
2.r	8f	4.F	2.r
.	8a-	.	.
.	8cc	.	.
.	8e-	[4.c	.
.	8g	.	.
.	8cc	.	.
=40	=40	=40	=40
4.dd-	8d-	8c]	2.r
.	8g	4.B-	.
.	8b-	.	.
[4.aa-	8c	.	.
.	8e-	4A-	.
.	8a-	.	.
=41	=41	=41	=41
8aa-]	8B-	2.r	4.EE-
8gg	8e-	.	.
4gg-	8b-	.	.
.	8B-	.	4.BB-
8ff	8d	.	.
[8bb-	8f	.	.
=42	=42	=42	=42
8bb-]	8c	4.F	2.r
8aa	8f	.	.
4aa-	8cc	.	.
.	8c	4.c	.
8gg	8e	.	.
[8ccc	8g	.	.
=43	=43	=43	=43
8ccc]	8f	4.d-	4.BB-
8aa	8b-	.	.
4bb-	8dd-	.	.
.	8f	4.c	4.F
8gg	8a-	.	.
[8aa-	8cc	.	.
=44	=44	=44	=44
8aa-]	8d-	4B-	4.GG-
8ff	8g-	.	.
4gg-	8b-	8c	.
.	8a-	4d-	4.D-
8ee	8b-	.	.
8ff	8b	8a-	.
=45	=45	=45	=45
8ff	2cc	8a-	4.C
8gg	.	8b-	.
8ee	.	8g	.
8ff	.	8a-	8F
4r	4r	4r	8A-
.	.	.	8c
=46	=46	=46	=46
2.r	4.r	8f	2.f
.	.	8a-	.
.	.	8cc-	.
.	[4.a-	8e-	.
.	.	8a-	.
.	.	8cc-	.
=47	=47	=47	=47
8bb-	4.a-]	8d	2.B-
8ff	.	8f	.
8dd	.	8b-	.
8aa-	4.f	4.r	.
8ff	.	.	.
8dd	.	.	.
=48	=48	=48	=48
8gg-	[2.g-	8e-	2.e-
8ee-	.	8g-	.
8b-	.	8b-	.
4.r	.	8d-	.
.	.	8f-	.
.	.	8b--	.
=49	=49	=49	=49
8aa-	4.g-]	8c	2.A-
8ee-	.	8e-	.
8cc	.	8a-	.
8gg-	4.e-	4.r	.
8ee-	.	.	.
8cc	.	.	.
=50	=50	=50	=50
8ff-	4.d-	4.a-	4.D-
8dd-	.	.	.
8a-	.	.	.
8g	[4.B-	4.g	4.E-
8b-	.	.	.
8ee-	.	.	.
=51	=51	=51	=51
8dd	4.B-]	4.a-	4.F
8a-	.	.	.
8f	.	.	.
8e-	4.b-	[4.e-	4.G
8b-	.	.	.
8dd-	.	.	.
=52	=52	=52	=52
8cc	2.a-	4.e-]	4.A-
8a-	.	.	.
8e-	.	.	.
8f	.	4.f	4.D
8a-	.	.	.
8cc-	.	.	.
=53	=53	=53	=53
8b-	8g	8B-	4E-
4r	4r	8G	.
.	.	8E-	2r
8cc	8a-	8D	.
4r	4r	8F	.
.	.	8A-	.
=54	=54	=54	=54
8b-	8e-	8G	8EE-
2r	2r	2r	8GG
.	.	.	8BB-
.	.	.	8AA-
.	.	.	8FF
8r	8r	8r	8DD
=55	=55	=55	=55
8bb-	8gg	2E-	4.EE-
8gg	8ee-	.	.
8ee-	4b-	.	.
8dd-	.	.	8GG
8b-	8e-	8G	8BB-
8g	8d-	8B-	8E-
=56	=56	=56	=56
[4.e-	4.c	4.A-	8AA-
.	.	.	8C
.	.	.	8E-
4.e-_	4.d-	4.B-	8GG
.	.	.	8BB-
.	.	.	8E-
=57	=57	=57	=57
8e-]	8c	4A-	8AA-
4.a-	8e-	.	8C
.	4f	8c	8F
.	.	4.B-	8D-
[4g	[4e-	.	8E-
.	.	.	8BB-
=58	=58	=58	=58
8g]	8e-]	4.A-	8BB
4.f	4.d-	.	8C
.	.	.	8D-
.	.	4.G	8BB-
[4e-	[4c	.	8C
.	.	.	8GG
=59	=59	=59	=59
8e-]	8c]	4.F	8AA-
4.d-	4.B-	.	8AA
.	.	.	8BB-
.	.	8F-	8GG
4c	[4A-	4E-	8AA-
.	.	.	8GG-
=60	=60	=60	=60
8d-	8A-]	8F	8FF
8e-	8B-	8G	8EE-
8f	8c-	8A-	8DD
4e-	8c	8A-	8EE-
.	8B-	8G	8E-
16.d-	8r	8r	8r
32B-	.	.	.
=61	=61	=61	=61
4A-	4.r	4.a-	8A-
.	.	.	8c
2r	.	.	8e-
.	4.ee-	[4.ee-	8G
.	.	.	8B-
.	.	.	8e-
=62	=62	=62	=62
4.aa-	2aa-	8ee-]	8F
.	.	4dd-	8A-
.	.	.	8d-
[4.eee-	.	8cc	8E-
.	4gg	4b-	8B-
.	.	.	8e-
=63	=63	=63	=63
8eee-]	8cc	8a	8f
4.ddd-	8dd-	8b-	8B-
.	8cc-	8a-	8d-
.	8b-	8g	8e-
[4ccc-	8cc-	8a-	8A-
.	8b-	8g-	8c-
=64	=64	=64	=64
8ccc-]	8a-	4.f	4.D
8bb-	8b-	.	.
8aa-	8cc-	.	.
4gg	16.b-	16.g	8E-
.	32cc	32a-	.
.	8dd-	8b-	8E
8aa-	8cc	8a-	8F
=65	=65	=65	=65
8ee-	4b-	8r	4G
8dd-	.	8e-	.
8cc	8a-	8e-	8A-
8cc	8a-	4e-	4E-
8b-	8g	.	.
8ee-	8r	8r	8r
=66	=66	=66	=66
[2e-	8r	8r	8r
.	8A-	8E-	8C
.	8c	8A-	8AA-
.	8c	8A	4E-
8e-]	8d-	8B-	.
8ee-	8r	8r	8r
=67	=67	=67	=67
[2e-	8r	8r	8r
.	8B-	8E-	8GG
.	8d-	8B-	8EE-
.	8B	8G	4AA-
8e-]	8c	8A-	.
8ee-	8r	8r	8r
=68	=68	=68	=68
2e	8r	8r	8r
.	8A-	8A-	8C
.	8A-	8G-	8C
.	4A-	8G-	8C
8f	.	8F	8D-
8ff	8r	8r	8r
=69	=69	=69	=69
2f#	8r	8r	8r
.	8B-	8B-	8D
.	8B-	8A-	8D
.	4B-	8A-	8D
8g	.	8G	8E-
8gg	8b-	[8c	8E
=70	=70	=70	=70
8b-	8g	4c]	4F
8a-	8f	.	.
8bb-	8dd-	4.e-	8G
8dd-	8b-	.	4A-
8cc	8a-	.	.
[8ee	8a-	[8A-	8C
=71	=71	=71	=71
8ee]	4a-	8A-]	4.D-
16gg	.	8d-	.
16ff	.	.	.
16ee-	8b-	8f	.
16dd-	.	.	.
8cc	8a-	4e-	8E-
8b-	8g	.	4r
8b-	8g	8e-	.
=72	=72	=72	=72
4b-	8.f	8.d	4.B-
.	16g	16e-	.
8b-	8a-	8f	.
4b-	8a-	8f	8e-
.	8g	8e-	4r
8ee-	8b- 8g	8e-	.
=73	=73	=73	=73
16dd	4.b- 4.a-	4.f	4.BB-
16ff	.	.	.
16aa-	.	.	.
16ff	.	.	.
16ee-	.	.	.
16dd	.	.	.
8dd	[8b- 8a-	8f	4EE-
8ee-	8b- 8g]	8e-	.
8r	8e-	8r	8r
=74	=74	=74	=74
4r	[2f-	8r	8r
.	.	8G	8BB-
8cc	.	8A-	8AA-
[4.dd-	.	8A	[4.GG
.	8f-]	8B-	.
.	8e-	8r	.
=75	=75	=75	=75
4dd-]	[2f-	8r	8GG]
.	.	8G	8BB-
8cc	.	8A-	8AA-
[4.dd-	.	8A	[4.GG
.	8f-]	8B-	.
.	8e-	8r	.
=76	=76	=76	=76
4dd-]	4.f-	8r	8GG]
.	.	8G	8BB-
8dd	.	8A-	8AA-
8ee-	4.e-	8A	4GG
8dd-	.	8B-	.
8cc	.	8c	8AA-
=77	=77	=77	=77
16cc	8d-	8f	8D-
16b-	.	.	.
8a-	8c	8e-	8E-
8g	8B-	8d-	8E
8.a-	[4.A-	[4.c	[4.F
48b-	.	.	.
48a-	.	.	.
48g	.	.	.
16a-	.	.	.
16b-	.	.	.
=78	=78	=78	=78
8cc	8A-]	8c]	8F]
2r	2r	2r	2r
8f	8r	8r	8r
=79	=79	=79	=79
[2g-	8r	8r	4r
.	8c	8E-	.
.	8d-	8D-	8BB-
.	8d	[4.C	[4.AA-
8g-]	8e-	.	.
8f	8r	.	.
=80	=80	=80	=80
[2g-	8r	8C]	4AA-]
.	8c	8E-	.
.	8d-	8D-	8BB--
.	8d	4.C	[4.AA-
8g-]	8e-	.	.
8ff	8r	.	.
=81	=81	=81	=81
[2gg-	8r	[2.a-	8AA-]
.	8cc	.	8A-
.	8dd-	.	8B-
.	8dd	.	8B
8gg-]	8ee-	.	8c
8ff	8dd-	.	8d-
=82	=82	=82	=82
8dd	8b	8a-]	8e-
8ee-	8cc	4r	4r
8cc	8a-	.	.
8ee-	8cc	8e-	8E-
16.dd-	16.b-	4r	4r
32cc	32a-	.	.
8b-	8g	.	.
=83	=83	=83	=83
2.b-	4.a-	4.f	8D
.	.	.	8F
.	.	.	8B-
.	4.g	[4.e-	8D-
.	.	.	8G
.	.	.	8B-
=84	=84	=84	=84
8ee-	8a-	8e-]	8C
8dd-	8b-	8g	8E
8cc	8a-	8..a-	8F
16.ff	16.dd-	.	8D-
32dd-	32b-	32f	.
8cc	8a-	4e-	8E-
8b-	8g	.	8e-
=85	=85	=85	=85
8bb-	[4.ff 4.b-	4.a-	4.d
8ddd	.	.	.
8fff	.	.	.
8bb-	4.gg 4.b-]	[4.ee-	4.d-
8eee-	.	.	.
8ggg	.	.	.
=86	=86	=86	=86
8aaa-	8aa-	8ee-]	8c
8ccc	8cc	2r	2r
8ddd-	8dd-	.	.
8ddd	8dd	.	.
8eee-	8ee-	.	.
8eee	8ee	8r	8r
=87	=87	=87	=87
8fff	8ff	4f	4d-
8aa	8a	.	.
8bb-	8b-	2r	2r
8..ddd-	8..dd-	.	.
32bb-	32b-	.	.
16.ddd-	16.dd-	.	.
32bb-	32b-	.	.
=88	=88	=88	=88
16.aa-	8a-	4r	4r
32ccc	.	.	.
8.eee-	8r	.	.
.	8cc	8a-	8e-
16ccc	.	.	.
8..eee-	8r	8r	8r
.	8cc	8a-	8e-
32ccc	.	.	.
16.eee-	8r	8r	8r
32ccc	.	.	.
=89	=89	=89	=89
8eee-	8r	8r	8r
16.r	8cc	8a-	8e-
32cc	.	.	.
16.ee-	4r	4r	4r
32cc	.	.	.
8ee-	.	.	.
16.r	8c	8A-	8E-
32c	.	.	.
16.e-	8r	8r	8r
32c	.	.	.
=90	=90	=90	=90
8e-	2.r	2.r	2.r
8e	.	.	.
8f	.	.	.
8g-	.	.	.
8g	.	.	.
8a-	.	.	.
=91	=91	=91	=91
4.A-	4.c	4.E-	8EE-
.	.	.	8EE-
.	.	.	8EE-
4.B-	4.G	4.D-	8EE-
.	.	.	8EE-
.	.	.	8EE-
=92	=92	=92	=92
4A-	4.A-	4.C	8AA-
.	.	.	8C
2r	.	.	8E-
.	4.g-	4.c 4.E-	8AA-
.	.	.	8C
.	.	.	8E-
=93	=93	=93	=93
16f	4.f	[4.d- 4.F	8AA-
16ff	.	.	.
16ee-	.	.	8D-
16dd-	.	.	.
16cc	.	.	8F
16b-	.	.	.
16e-	4.g	4.d- 4.E-]	8AA-
16dd-	.	.	.
16cc	.	.	8BB-
16b-	.	.	.
16a-	.	.	8D-
16g	.	.	.
=94	=94	=94	=94
16.ee-	4.a-	4.c 4.E-	8AA-
32cc	.	.	.
8a-	.	.	8C
2r	.	.	8E-
.	4.g-	4.e- 4.c	8AA-
.	.	.	8C
.	.	.	8E-
=95	=95	=95	=95
16f	4.f	[4.d-	8AA-
16ff	.	.	.
16ee-	.	.	8D-
16dd-	.	.	.
16cc	.	.	8F
16b-	.	.	.
16b-	4.g 4.B-	[4.e- 4.d-]	8AA-
16ddd-	.	.	.
16ccc	.	.	8BB-
16bb-	.	.	.
16aa-	.	.	8D-
16gg	.	.	.
=96	=96	=96	=96
8aa-	8a- 8c	8e- 8c]	8AA-
8a-	8e- 8c	8A-	8AA-
8a-	8e- 8c	8A-	8AA-
8a-	8e- 8c	8A-	8AA-
4r	4r	4r	4r
==	==	==	==
*-	*-	*-	*-
!!!RWG1: This file contains only pitch and duration data.
!!!RWG2: Transposing instruments are not transposed.
!!!RWG3: Spines may have incompatible meters.
!!!RWG4: Durations of rests and tied notes may be interpreted.
!!!RWG: Key is interpreted using the Humdrum key tool.
!!!AFT: stage1
!!!END: 1997/04/15
!!format changes:
!!content changes:
!!public access: complete
!!!KEY: 4132693571
!!!EMD: Converted from MuseData to Humdrum Dec 16, 2000, by Andreas Kornstaedt using muse2kern.
